resources/SLDS/icons/standard/capacity_plan.svg

<svg xmlns="http://www.w3.org/2000/svg" height="100" width="100" viewBox="0 0 100 100" fill="#fff"><path d="M39 32h22a2 2 0 0 0 2-2v-4a6 6 0 0 0-6-6H43a6 6 0 0 0-6 6v4a2 2 0 0 0 2 2zm10.8 16.4v11.4h10.7a9.9 9.9 0 0 0-3.1-7.8c-3.7-3.8-7.6-3.6-7.6-3.6zM72 25h-2a.9.9 0 0 0-1 1v4a8 8 0 0 1-8 8H39a8 8 0 0 1-8-8v-4a.9.9 0 0 0-1-1h-2a6 6 0 0 0-6 6v43a6 6 0 0 0 6 6h44a6 6 0 0 0 6-6V31a6 6 0 0 0-6-6zm-7.1 34.3a14.9 14.9 0 1 1-14.8-15 14.9 14.9 0 0 1 14.8 15z"/></svg>

<svg data-name="Layer 1" xmlns="http://www.w3.org/2000/svg" width="100" height="100" viewBox="0 0 100 100"><path d="M39,32H61a2,2,0,0,0,2-2V26a6,6,0,0,0-6-6H43a6,6,0,0,0-6,6v4A2,2,0,0,0,39,32Z" fill="#fff"/><path d="M49.8,48.4V59.8H60.5A9.88,9.88,0,0,0,57.4,52C53.7,48.2,49.8,48.4,49.8,48.4Z" fill="#fff"/><path d="M72,25H70a.94.94,0,0,0-1,1v4a8,8,0,0,1-8,8H39a8,8,0,0,1-8-8V26a.94.94,0,0,0-1-1H28a6,6,0,0,0-6,6V74a6,6,0,0,0,6,6H72a6,6,0,0,0,6-6V31A6,6,0,0,0,72,25ZM64.9,59.3a14.9,14.9,0,1,1-14.8-15,14.94,14.94,0,0,1,14.8,15Z" fill="#fff"/></svg>
